build/img/sprite/icon-twitter.svg

<svg viewBox="0 0 15 13" xmlns="http://www.w3.org/2000/svg">
<path d="M14.9993 1.54324C14.4375 1.80812 13.8417 1.98209 13.2317 2.05937C13.8747 1.64947 14.3559 1.00438 14.5857 0.244297C13.9823 0.627078 13.3207 0.895338 12.6312 1.04045C12.1681 0.512227 11.5542 0.161908 10.885 0.0439529C10.2158 -0.0740019 9.52875 0.047017 8.93073 0.388195C8.33271 0.729374 7.85718 1.2716 7.57809 1.93057C7.29899 2.58954 7.23196 3.32833 7.38741 4.0321C6.16374 3.96673 4.96664 3.62777 3.87384 3.03724C2.78104 2.4467 1.81696 1.6178 1.0442 0.604331C0.770671 1.10512 0.626929 1.67441 0.627698 2.2539C0.627698 3.39126 1.17077 4.39606 1.99642 4.98435C1.50781 4.96795 1.02995 4.8273 0.602679 4.57411V4.6149C0.602826 5.37238 0.848731 6.1065 1.2987 6.69279C1.74867 7.27907 2.37501 7.68144 3.07153 7.83167C2.61795 7.96269 2.14235 7.98201 1.68073 7.88815C1.87711 8.54016 2.25987 9.11038 2.77541 9.51897C3.29095 9.92757 3.91346 10.1541 4.55578 10.1668C3.9174 10.7012 3.18645 11.0963 2.40474 11.3294C1.62303 11.5625 0.805873 11.6291 0 11.5253C1.40676 12.4897 3.04437 13.0017 4.71693 13C10.378 13 13.4738 8.0011 13.4738 3.66579C13.4738 3.5246 13.4701 3.38184 13.4642 3.24222C14.0668 2.778 14.5869 2.20293 15 1.54403L14.9993 1.54324Z"/>
</svg>

<svg viewBox="0 0 15 13" xmlns="http://www.w3.org/2000/svg"><path d="M15 1.543a5.875 5.875 0 01-1.768.516A3.263 3.263 0 0014.586.244a5.925 5.925 0 01-1.955.796 3.025 3.025 0 00-1.746-.996 2.913 2.913 0 00-1.954.344 3.206 3.206 0 00-1.353 1.543 3.48 3.48 0 00-.19 2.101 8.318 8.318 0 01-3.514-.995A8.868 8.868 0 011.044.604a3.44 3.44 0 00-.416 1.65c0 1.137.543 2.142 1.368 2.73a2.924 2.924 0 01-1.393-.41v.04c0 .758.246 1.492.696 2.079.45.586 1.076.988 1.773 1.139-.454.13-.93.15-1.391.056a3.287 3.287 0 001.094 1.631 2.958 2.958 0 001.78.648 6.03 6.03 0 01-2.15 1.162c-.782.233-1.6.3-2.405.196A8.318 8.318 0 004.717 13c5.661 0 8.757-4.999 8.757-9.334 0-.141-.004-.284-.01-.424A6.496 6.496 0 0015 1.544z"/></svg>
